X: 40369
T: Tom Duff's
R: barndance
M: 4/4
K: Gmajor
|:BA|GEDB, D2B,G,|B,D DB, D2GA|Bd ~d2 ed ~d2|BAGB A2BA|
GEDB, D2B,G,|B,D DB, D2GA|BcdB A2BA|G2GF G2:|
AB|cE ~E2 c2 BA|BD ~D2 B2AB|cE ~E2 c2 BA|Bd ~d2 e2dA|
BAGB A2GA|BGAG E2DC|B,D ~D2 CE EG|GABA G2||

